img/google.svg

<svg width="96" height="32" viewBox="0 0 96 32" fill="none" xmlns="http://www.w3.org/2000/svg">
<path d="M23.6269 11.1255H12.4352V14.4255H20.3938C19.9959 19.0755 16.1161 21.1255 12.485 21.1255C7.80933 21.1255 3.73058 17.4255 3.73058 12.2755C3.73058 7.22546 7.61037 3.32546 12.485 3.32546C16.2653 3.32546 18.4539 5.72546 18.4539 5.72546L20.742 3.32546C20.742 3.32546 17.7575 0.0254647 12.3358 0.0254647C5.42177 -0.0245353 0.0994873 5.82546 0.0994873 12.1755C0.0994873 18.3755 5.12332 24.4255 12.5347 24.4255C19.0508 24.4255 23.8259 19.9755 23.8259 13.3255C23.8259 11.9255 23.6269 11.1255 23.6269 11.1255Z" fill="white"/>
<path fill-rule="evenodd" clip-rule="evenodd" d="M24.8705 16.4755C24.8705 12.2755 28.1534 8.67554 32.7295 8.67554C36.5098 8.67554 40.5886 11.3755 40.6383 16.5755C40.6383 21.1755 37.1565 24.4255 32.829 24.4255C28.0539 24.4255 24.8705 20.7755 24.8705 16.4755ZM37.1565 16.5755C37.1565 13.6755 35.0176 11.8255 32.7793 11.8255C30.2425 11.8255 28.3026 13.8255 28.3523 16.5255C28.3523 19.3255 30.2922 21.3255 32.7793 21.3255C35.0674 21.3255 37.1565 19.4755 37.1565 16.5755Z" fill="white"/>
<path fill-rule="evenodd" clip-rule="evenodd" d="M41.9814 16.4755C41.9814 12.2755 45.2643 8.67554 49.8404 8.67554C53.6207 8.67554 57.6995 11.3755 57.7492 16.5755C57.7492 21.1755 54.2674 24.4255 49.9399 24.4255C45.1648 24.4255 41.9814 20.7755 41.9814 16.4755ZM54.2674 16.5755C54.2674 13.6755 52.1285 11.8255 49.8902 11.8255C47.3534 11.8255 45.4135 13.8255 45.4632 16.5255C45.4632 19.3255 47.4031 21.3255 49.8902 21.3255C52.1782 21.3255 54.2674 19.4755 54.2674 16.5755Z" fill="white"/>
<path fill-rule="evenodd" clip-rule="evenodd" d="M59.0922 16.5756C59.0922 12.4256 62.3751 8.72559 66.6031 8.72559C68.4435 8.72559 69.8363 9.42559 70.7316 10.5256V9.17559H74.0145V23.3256C74.0145 28.8756 70.8311 31.5256 66.6528 31.5256C62.8228 31.5256 60.6839 29.1756 59.6394 26.9256L62.6736 25.6756C63.1212 26.6756 64.315 28.4756 66.7026 28.4756C69.1896 28.4756 70.8311 26.8256 70.8311 24.1256V22.5756C69.886 23.6256 68.742 24.4756 66.5036 24.4756C62.9223 24.4756 59.0922 21.2756 59.0922 16.5756ZM71.0798 16.6256C71.0798 13.6256 68.9409 11.8256 66.9016 11.8256C64.7129 11.8256 62.5741 13.5756 62.5243 16.6756C62.5243 19.5256 64.6135 21.3756 66.8518 21.3756C68.9907 21.3756 71.0798 19.7256 71.0798 16.6256Z" fill="white"/>
<path fill-rule="evenodd" clip-rule="evenodd" d="M81.4259 16.5255C81.4259 11.8255 84.7585 8.67554 88.7378 8.67554C91.8218 8.67554 94.1596 10.7755 95.2041 13.1755L95.7513 14.4755L85.256 18.8755C85.9026 20.0755 86.8974 21.2755 89.086 21.2755C91.0259 21.2755 92.2197 20.2255 92.9161 19.1255L95.6518 20.9755C94.458 22.5755 92.3689 24.4255 89.086 24.4255C85.1565 24.4255 81.4259 21.4755 81.4259 16.5255ZM91.772 13.4255C91.2746 12.4755 90.2798 11.7255 88.8373 11.7255C86.599 11.7255 84.4104 14.0755 84.8083 16.3755L91.772 13.4255Z" fill="white"/>
<path d="M76.4518 23.9754H79.8839V0.775391H76.4518V23.9754Z" fill="white"/>
</svg>

<svg width="96" height="32" fill="none" xmlns="http://www.w3.org/2000/svg"><path d="M23.627 11.126H12.435v3.3h7.959c-.398 4.65-4.278 6.7-7.909 6.7-4.676 0-8.754-3.7-8.754-8.85 0-5.05 3.88-8.95 8.754-8.95 3.78 0 5.969 2.4 5.969 2.4l2.288-2.4s-2.985-3.3-8.406-3.3C5.422-.024.099 5.826.099 12.176c0 6.2 5.024 12.25 12.436 12.25 6.516 0 11.29-4.45 11.29-11.1 0-1.4-.198-2.2-.198-2.2Z" fill="#fff"/><path fill-rule="evenodd" clip-rule="evenodd" d="M24.87 16.476c0-4.2 3.283-7.8 7.86-7.8 3.78 0 7.859 2.7 7.908 7.9 0 4.6-3.481 7.85-7.809 7.85-4.775 0-7.959-3.65-7.959-7.95Zm12.287.1c0-2.9-2.14-4.75-4.378-4.75-2.537 0-4.476 2-4.427 4.7 0 2.8 1.94 4.8 4.427 4.8 2.288 0 4.377-1.85 4.377-4.75ZM41.981 16.476c0-4.2 3.283-7.8 7.86-7.8 3.78 0 7.858 2.7 7.908 7.9 0 4.6-3.482 7.85-7.81 7.85-4.774 0-7.958-3.65-7.958-7.95Zm12.286.1c0-2.9-2.139-4.75-4.377-4.75-2.537 0-4.477 2-4.427 4.7 0 2.8 1.94 4.8 4.427 4.8 2.288 0 4.377-1.85 4.377-4.75ZM59.092 16.576c0-4.15 3.283-7.85 7.511-7.85 1.84 0 3.233.7 4.129 1.8v-1.35h3.282v14.15c0 5.55-3.183 8.2-7.361 8.2-3.83 0-5.97-2.35-7.014-4.6l3.035-1.25c.447 1 1.641 2.8 4.029 2.8 2.487 0 4.128-1.65 4.128-4.35v-1.55c-.945 1.05-2.089 1.9-4.327 1.9-3.582 0-7.412-3.2-7.412-7.9Zm11.988.05c0-3-2.14-4.8-4.178-4.8-2.19 0-4.328 1.75-4.378 4.85 0 2.85 2.09 4.7 4.328 4.7 2.139 0 4.228-1.65 4.228-4.75ZM81.426 16.526c0-4.7 3.332-7.85 7.312-7.85 3.084 0 5.422 2.1 6.466 4.5l.547 1.3-10.495 4.4c.647 1.2 1.641 2.4 3.83 2.4 1.94 0 3.134-1.05 3.83-2.15l2.736 1.85c-1.194 1.6-3.283 3.45-6.566 3.45-3.93 0-7.66-2.95-7.66-7.9Zm10.346-3.1c-.497-.95-1.492-1.7-2.935-1.7-2.238 0-4.427 2.35-4.029 4.65l6.964-2.95Z" fill="#fff"/><path d="M76.452 23.976h3.432V.776h-3.432v23.2Z" fill="#fff"/></svg>
